build/assets/images/proyectos/logos/fichas/logo-isdi.svg

<svg width="73" height="87" viewBox="0 0 73 87" fill="none" xmlns="http://www.w3.org/2000/svg">
<g clip-path="url(#clip0)">
<path fill-rule="evenodd" clip-rule="evenodd" d="M72.8049 0.341309H-0.057373V85.9429H72.8049V0.341309ZM19.1078 41.7766V42.8007L10.4858 35.9937V35.3637L19.1078 28.5553V29.5794L11.3847 35.6787L19.1078 41.7766ZM53.6383 41.7766V42.8007L62.2617 35.9937V35.3637L53.6383 28.5553V29.5794L61.3628 35.6787L53.6383 41.7766ZM24.2898 14.5443V33.9177H29.6231V14.5443H24.2898ZM42.3563 19.3821C43.6405 19.7341 44.8789 20.2352 46.046 20.8751L48.5767 16.4768C48.095 16.2585 47.5544 16.0226 46.9508 15.7808C46.3471 15.5391 45.7008 15.3091 45.0075 15.0995C44.2995 14.8886 43.5798 14.7186 42.8527 14.5882C42.0978 14.4505 41.3325 14.3816 40.5643 14.3816C39.54 14.3769 38.5203 14.52 37.5371 14.8065C36.6249 15.0666 35.765 15.483 34.996 16.0372C34.2261 16.5943 33.6041 17.3305 33.1841 18.1817C32.764 19.0329 32.5586 19.9736 32.5857 20.922C32.5742 21.5635 32.6813 22.2017 32.9015 22.8047C33.1164 23.3588 33.4509 23.859 33.8812 24.2698C34.3806 24.7372 34.9505 25.1225 35.5674 25.4155C36.3547 25.7935 37.1713 26.1071 38.0086 26.3561C38.6504 26.5539 39.2571 26.7283 39.8299 26.8748C40.4028 27.0213 40.911 27.1678 41.3516 27.3143C41.7235 27.4253 42.0748 27.596 42.3915 27.8198C42.5058 27.897 42.5997 28.0006 42.6651 28.1218C42.7306 28.2429 42.7657 28.3781 42.7676 28.5157C42.7664 28.6424 42.7308 28.7664 42.6646 28.8745C42.5984 28.9826 42.504 29.0708 42.3915 29.1296C42.1404 29.2835 41.6924 29.3611 41.0505 29.3611C40.2113 29.3619 39.3756 29.252 38.5653 29.0344C37.8206 28.841 37.092 28.5948 36.3811 28.3018C35.6234 27.9968 34.8873 27.6409 34.1779 27.2367L31.6471 31.9031C32.3213 32.2635 33.0219 32.5727 33.7416 32.8305C35.2963 33.3923 36.9071 33.7853 38.5462 34.0026C39.3452 34.1111 40.1486 34.1667 40.955 34.1667C41.9426 34.1659 42.9273 34.0608 43.8927 33.8532C44.8182 33.6623 45.7044 33.3155 46.513 32.8276C47.2837 32.356 47.9255 31.7017 48.3814 30.9229C48.8543 30.1347 49.0894 29.1575 49.0894 27.9927C49.1136 27.1918 48.9591 26.3956 48.637 25.6617C48.338 25.0272 47.8943 24.4712 47.3415 24.0383C46.721 23.5595 46.0368 23.1689 45.3086 22.8779C44.4387 22.5251 43.5485 22.2242 42.6427 21.9769C42.0185 21.7967 41.4603 21.6413 40.9712 21.5139C40.5467 21.4081 40.1292 21.2759 39.7212 21.1183C39.4357 21.0147 39.1703 20.8625 38.9369 20.6685C38.8487 20.5897 38.7788 20.4926 38.7321 20.384C38.6855 20.2754 38.6631 20.158 38.6666 20.04C38.6598 19.8848 38.7009 19.7313 38.7845 19.6003C38.868 19.4693 38.9899 19.367 39.1337 19.3074C39.5303 19.1462 39.9562 19.0715 40.3837 19.0891C41.0517 19.0944 41.7157 19.1931 42.3563 19.3821ZM24.2898 38.1504V57.5238H31.2006C32.5728 57.5425 33.9365 57.3065 35.2222 56.8279C36.3757 56.3932 37.4261 55.7241 38.3067 54.8631C39.1775 53.9961 39.8534 52.9543 40.2896 51.8069C40.7696 50.5295 41.0062 49.174 40.9873 47.81C40.9959 46.5324 40.7827 45.2629 40.3572 44.0578C39.9578 42.8965 39.3109 41.8353 38.4609 40.9473C37.611 40.0593 36.5782 39.3655 35.4337 38.9137C34.2102 38.4053 32.7972 38.1504 31.1932 38.1504H24.2898ZM35.2707 45.7588C35.4793 46.4225 35.5806 47.1141 35.5718 47.81C35.5763 48.4934 35.4773 49.1736 35.278 49.8275C35.1032 50.4135 34.8154 50.9615 34.4305 51.4391C34.0564 51.8934 33.5838 52.2571 33.0484 52.5028C32.4667 52.7651 31.8337 52.8955 31.1947 52.8852H29.6231V42.7905H31.1947C31.8245 42.7795 32.4493 42.9023 33.0278 43.1509C33.559 43.3857 34.0308 43.7361 34.4085 44.1765C34.7983 44.6417 35.0914 45.1796 35.2707 45.7588ZM43.0922 38.1504V57.5238H48.4254V38.1504H43.0922ZM10.3081 67.0501V71.6843L11.959 71.6828C12.2788 71.6874 12.5964 71.6307 12.8947 71.5158C13.1653 71.412 13.41 71.2507 13.6117 71.0429C13.8133 70.8352 13.9672 70.5861 14.0624 70.3129C14.174 70.0067 14.2284 69.6829 14.224 69.3576C14.224 69.0529 14.1755 68.7496 14.0771 68.461C13.986 68.1899 13.8391 67.9409 13.6482 67.7284C13.4514 67.5145 13.2105 67.346 12.9417 67.2332C12.6288 67.1057 12.2939 67.0427 11.9561 67.0501H10.3081ZM13.3735 68.6881C13.4425 68.9064 13.4778 69.132 13.4749 69.3606C13.4793 69.5862 13.4484 69.8104 13.3838 70.0257C13.3221 70.2206 13.2222 70.4023 13.09 70.5576C12.9594 70.7094 12.7963 70.8301 12.6127 70.9107C12.407 70.9986 12.1838 71.0425 11.9605 71.0381H11.0454V67.6962H11.9605C12.1809 67.692 12.3996 67.7344 12.6024 67.8207C12.7867 67.9003 12.9512 68.0192 13.0845 68.169C13.2177 68.3189 13.3164 68.4961 13.3735 68.6881ZM15.1787 67.0501V71.6843H15.9131V67.0501H15.1787ZM19.7728 71.556C20.006 71.4515 20.2148 71.2996 20.3857 71.1099L20.3886 71.6887H21.004V69.3445H19.406V69.8851H20.3813V70.3818C20.2124 70.5938 20.002 70.7693 19.7629 70.8975C19.5528 71.0044 19.3208 71.0601 19.0858 71.0601C18.8801 71.0616 18.676 71.0162 18.4909 70.9268C18.3102 70.8389 18.1486 70.7158 18.0165 70.5634C17.8784 70.4067 17.7726 70.225 17.7021 70.0287C17.5554 69.6091 17.5508 69.1531 17.6889 68.7306C17.7527 68.5343 17.8523 68.3515 17.9827 68.1914C18.1082 68.0377 18.2642 67.9115 18.4409 67.8207C18.6245 67.724 18.8287 67.6742 19.0358 67.6742C19.2931 67.6713 19.5465 67.7365 19.7702 67.8632C19.9983 67.9951 20.1811 68.1928 20.2946 68.4302L20.8572 68.0273C20.7044 67.724 20.4679 67.4706 20.1756 67.2947C19.8705 67.1297 19.5318 67.0358 19.1851 67.0201C18.8383 67.0043 18.4925 67.0672 18.1736 67.2039C17.9088 67.3236 17.6709 67.4956 17.4745 67.7094C17.275 67.9262 17.1185 68.1787 17.0132 68.4537C16.7877 69.0308 16.7877 69.6713 17.0132 70.2484C17.1187 70.5272 17.2751 70.784 17.4745 71.0059C17.6695 71.2222 17.905 71.3983 18.1677 71.5246C18.4373 71.6531 18.7326 71.7187 19.0314 71.7165C19.2871 71.7151 19.5396 71.6604 19.7728 71.556ZM22.0733 67.0501V71.6843H22.8077V67.0501H22.0733ZM25.8203 67.6976H27.3655V67.0515H23.5304V67.6976H25.0859V71.6857H25.8203V67.6976ZM29.5584 67.0501H28.9166L27.0717 71.6843H27.8502L28.3349 70.4243H30.1269L30.6175 71.6843H31.3901L29.5584 67.0501ZM29.2368 67.8925L29.9829 69.8822H28.4656L29.2368 67.8925ZM32.0951 67.0501V71.6843H35.3265V71.0381H32.8295V67.0501H32.0951ZM39.7888 67.6976H41.334V67.0515H37.4989V67.6976H39.0544V71.6857H39.7888V67.6976ZM43.5313 67.0501H42.8895L41.0387 71.6843H41.8172L42.3019 70.4243H44.0998L44.5904 71.6843H45.363L43.5313 67.0501ZM43.2111 67.8925L43.9558 69.8822H42.4385L43.2111 67.8925ZM46.0636 67.0501V71.6843H49.295V71.0381H46.798V67.0501H46.0636ZM53.1859 71.6843V71.0381L50.733 71.0396V69.6228H52.8069V69.0163H50.733V67.6976H53.1271V67.0501H50V71.6843H53.1859ZM54.8031 71.6843V68.42L57.4308 71.6843H58.0301V67.0559H57.2957V70.392L54.64 67.0501H54.0687V71.6843H54.8031ZM61.0588 67.6976H62.6025V67.0515H58.7689V67.6976H60.3244V71.6857H61.0588V67.6976Z" fill="white"/>
</g>
<defs>
<clipPath id="clip0">
<rect width="72.8535" height="85.71" fill="white" transform="translate(0 0.301758)"/>
</clipPath>
</defs>
</svg>

<svg width="73" height="87" fill="none" xmlns="http://www.w3.org/2000/svg"><g clip-path="url(#clip0)"><path fill-rule="evenodd" clip-rule="evenodd" d="M72.805.341H-.057v85.602h72.862V.34zM19.108 41.777V42.8l-8.622-6.807v-.63l8.622-6.809v1.024l-7.723 6.1 7.723 6.098zm34.53 0V42.8l8.624-6.807v-.63l-8.624-6.809v1.024l7.725 6.1-7.725 6.098zM24.29 14.544v19.374h5.333V14.544H24.29zm18.066 4.838a17.05 17.05 0 013.69 1.493l2.53-4.398a39.444 39.444 0 00-1.625-.696 23.578 23.578 0 00-1.944-.681 19.831 19.831 0 00-2.154-.512 12.747 12.747 0 00-2.289-.206 10.647 10.647 0 00-3.027.425 8.185 8.185 0 00-2.541 1.23 5.834 5.834 0 00-2.41 4.885c-.012.642.095 1.28.316 1.883a4.05 4.05 0 00.98 1.465 6.667 6.667 0 001.685 1.146c.788.378 1.604.691 2.442.94a39.6 39.6 0 001.82.519c.574.146 1.082.293 1.523.44.372.11.723.281 1.04.505a.854.854 0 01.376.696.7.7 0 01-.377.614c-.25.154-.699.231-1.34.231a9.57 9.57 0 01-2.486-.327 16.84 16.84 0 01-2.184-.732 18.113 18.113 0 01-2.203-1.065l-2.53 4.666c.673.36 1.374.67 2.094.928 1.554.561 3.165.954 4.804 1.172.8.108 1.603.164 2.409.164a14.019 14.019 0 002.938-.314 8.329 8.329 0 002.62-1.025 5.477 5.477 0 001.868-1.905c.473-.788.708-1.765.708-2.93a5.384 5.384 0 00-.452-2.331 4.497 4.497 0 00-1.295-1.624 8.477 8.477 0 00-2.033-1.16c-.87-.353-1.76-.654-2.666-.901a67.403 67.403 0 00-1.672-.463 10.55 10.55 0 01-1.25-.396 2.631 2.631 0 01-.784-.45.811.811 0 01-.27-.628.756.756 0 01.467-.733 2.992 2.992 0 011.25-.218 7.172 7.172 0 011.972.293zM24.29 38.15v19.374h6.91a11.095 11.095 0 004.022-.696 8.903 8.903 0 003.085-1.965 8.65 8.65 0 001.983-3.056c.48-1.278.716-2.633.697-3.997a11.046 11.046 0 00-.63-3.752 8.52 8.52 0 00-4.923-5.144c-1.224-.509-2.637-.764-4.24-.764H24.29zm10.98 7.609a6.56 6.56 0 01.302 2.051 6.767 6.767 0 01-.294 2.017 4.72 4.72 0 01-.847 1.612 3.894 3.894 0 01-1.383 1.064 4.34 4.34 0 01-1.853.382h-1.572V42.791h1.572a4.446 4.446 0 011.833.36 3.891 3.891 0 011.38 1.025c.39.466.683 1.004.863 1.583zm7.822-7.609v19.374h5.333V38.15h-5.333zm-32.784 28.9v4.634l1.651-.001c.32.004.637-.052.936-.167a1.995 1.995 0 001.167-1.203c.112-.306.166-.63.162-.955 0-.305-.049-.608-.147-.897a2.097 2.097 0 00-.429-.733 2.022 2.022 0 00-.706-.495 2.468 2.468 0 00-.986-.183h-1.648zm3.066 1.638c.069.218.104.444.1.673.005.225-.026.45-.09.665a1.537 1.537 0 01-.294.532 1.34 1.34 0 01-.477.353 1.584 1.584 0 01-.652.127h-.916v-3.342h.915c.22-.004.44.038.642.125a1.375 1.375 0 01.771.867zm1.805-1.638v4.634h.734V67.05h-.734zm4.594 4.506a1.84 1.84 0 00.613-.446l.003.579h.615v-2.344h-1.598v.54h.975v.497a1.993 1.993 0 01-.618.515c-.21.107-.442.163-.677.163a1.347 1.347 0 01-.595-.133 1.49 1.49 0 01-.474-.364 1.652 1.652 0 01-.315-.534 2.026 2.026 0 01-.013-1.298 1.66 1.66 0 01.294-.54 1.43 1.43 0 01.458-.37c.184-.097.388-.147.595-.147.257-.003.51.063.734.19.228.131.411.329.525.566l.562-.403a1.802 1.802 0 00-.681-.732 2.301 2.301 0 00-2.002-.091c-.265.12-.503.292-.7.505a2.465 2.465 0 00-.461 2.539c.106.28.262.536.462.758.194.216.43.392.693.519.27.128.565.194.863.191a1.84 1.84 0 00.742-.16zm2.3-4.506v4.634h.735V67.05h-.735zm3.747.648h1.546v-.646H23.53v.646h1.556v3.988h.734v-3.988zm3.738-.648h-.641l-1.845 4.634h.778l.485-1.26h1.792l.49 1.26h.773l-1.832-4.634zm-.321.843l.746 1.99h-1.517l.77-1.99zm2.858-.843v4.634h3.232v-.646H32.83V67.05h-.735zm7.694.648h1.545v-.646h-3.835v.646h1.555v3.988h.735v-3.988zm3.742-.648h-.642l-1.85 4.634h.778l.485-1.26H44.1l.49 1.26h.773l-1.832-4.634zm-.32.843l.745 1.99h-1.518l.773-1.99zm2.853-.843v4.634h3.231v-.646h-2.497V67.05h-.734zm7.122 4.634v-.646l-2.453.002v-1.417h2.074v-.607h-2.074v-1.318h2.394v-.648H50v4.634h3.186zm1.617 0V68.42l2.628 3.264h.6v-4.628h-.735v3.336L54.64 67.05h-.571v4.634h.734zm6.256-3.986h1.544v-.646h-3.834v.646h1.555v3.988h.735v-3.988z" fill="#fff"/></g><defs><clipPath id="clip0"><path fill="#fff" transform="translate(0 .302)" d="M0 0h72.853v85.71H0z"/></clipPath></defs></svg>
